image/icon-cut-close.svg

<svg width="24" height="24" viewBox="0 0 24 24" fill="none" xmlns="http://www.w3.org/2000/svg">
<path d="M19.5014 15H15.5014H14L12.0014 14H10.5L9.15 14C9.28333 14.25 9.375 14.5167 9.425 14.8C9.475 15.0833 9.5 15.3667 9.5 15.65C9.5 16.75 9.10833 17.6917 8.325 18.475C7.54167 19.2583 6.6 19.65 5.5 19.65C4.4 19.65 3.45833 19.2583 2.675 18.475C1.89167 17.6917 1.5 16.75 1.5 15.65C1.5 14.55 1.89167 13.6083 2.675 12.825C3.45833 12.0417 4.4 11.65 5.5 11.65C5.78333 11.65 6.06667 11.675 6.35 11.725C6.63333 11.775 6.9 11.8667 7.15 12L10.0014 12L7.15 11.15C6.9 11.2833 6.63333 11.375 6.35 11.425C6.06667 11.475 5.78333 11.5 5.5 11.5C4.4 11.5 3.45833 11.1083 2.675 10.325C1.89167 9.54167 1.5 8.6 1.5 7.5C1.5 6.4 1.89167 5.45833 2.675 4.675C3.45833 3.89167 4.4 3.5 5.5 3.5C6.6 3.5 7.54166 3.89167 8.325 4.675C9.10833 5.45833 9.49999 6.4 9.49999 7.5C9.49999 7.78333 9.47499 8.06667 9.42499 8.35C9.37499 8.63333 9.28332 8.9 9.14999 9.15L12.5757 11.075L16.0014 13H19.5014H22.0014L23.0014 14L22.0014 15H19.5014ZM16 12L14.2493 11L12.4986 10H19.5014H22.0014L23.0014 11L22.0014 12H16ZM5.5 9.5C6.05 9.5 6.52083 9.30417 6.9125 8.9125C7.30417 8.52083 7.5 8.05 7.5 7.5C7.5 6.95 7.30417 6.47917 6.9125 6.0875C6.52083 5.69583 6.05 5.5 5.5 5.5C4.95 5.5 4.47917 5.69583 4.0875 6.0875C3.69583 6.47917 3.5 6.95 3.5 7.5C3.5 8.05 3.69583 8.52083 4.0875 8.9125C4.47917 9.30417 4.95 9.5 5.5 9.5ZM12.0014 12.5C12.1347 12.5 12.2514 12.45 12.3514 12.35C12.4514 12.25 12.5014 12.1333 12.5014 12C12.5014 11.8667 12.4514 11.75 12.3514 11.65C12.2514 11.55 12.1347 11.5 12.0014 11.5C11.8681 11.5 11.7514 11.55 11.6514 11.65C11.5514 11.75 11.5014 11.8667 11.5014 12C11.5014 12.1333 11.5514 12.25 11.6514 12.35C11.7514 12.45 11.8681 12.5 12.0014 12.5ZM5.5 17.65C6.05 17.65 6.52083 17.4542 6.9125 17.0625C7.30417 16.6708 7.5 16.2 7.5 15.65C7.5 15.1 7.30417 14.6292 6.9125 14.2375C6.52083 13.8458 6.05 13.65 5.5 13.65C4.95 13.65 4.47917 13.8458 4.0875 14.2375C3.69583 14.6292 3.5 15.1 3.5 15.65C3.5 16.2 3.69583 16.6708 4.0875 17.0625C4.47917 17.4542 4.95 17.65 5.5 17.65Z" fill="#000"/>
</svg>

<svg xmlns="http://www.w3.org/2000/svg" width="24" height="24" fill="none"><path fill="#000" d="M19.501 15H14l-1.999-1H9.15q.2.375.275.8t.075.85q0 1.65-1.175 2.825T5.5 19.65t-2.825-1.175T1.5 15.65t1.175-2.825T5.5 11.65q.425 0 .85.075t.8.275h2.851l-2.851-.85q-.375.2-.8.275t-.85.075q-1.65 0-2.825-1.175T1.5 7.5t1.175-2.825T5.5 3.5t2.825 1.175T9.5 7.5q0 .425-.075.85t-.275.8l3.426 1.925L16 13h6l1 1-1 1zM16 12l-1.75-1-1.751-1H22l1 1-1 1zM5.5 9.5q.824 0 1.412-.588Q7.5 8.326 7.5 7.5q0-.824-.588-1.412A1.93 1.93 0 0 0 5.5 5.5q-.824 0-1.412.588A1.93 1.93 0 0 0 3.5 7.5q0 .825.588 1.412.587.588 1.412.588m6.501 3a.48.48 0 0 0 .35-.15.48.48 0 0 0 0-.7.48.48 0 0 0-.7 0 .48.48 0 0 0 0 .7q.15.15.35.15M5.5 17.65q.824 0 1.412-.587.588-.588.588-1.413t-.588-1.412A1.93 1.93 0 0 0 5.5 13.65q-.824 0-1.412.588A1.93 1.93 0 0 0 3.5 15.65q0 .824.588 1.412.587.588 1.412.588"/></svg>
